X:1
T:Alma fugece
T:Alma fugece
T:Gio.Girolamo Kapsperger
C:Gio.Girolamo Kapsperger
%%score 1 { ( 2 4 ) | 3 }
L:1/8
Q:1/4=120
M:4/4
K:F
V:1 treble nm="Soprano" snm="S"
V:2 treble nm="BC" snm="BC"
V:4 treble 
V:3 bass 
V:1
 A4 ^F3 E | D4 D4 | c6 c^F | ^F3 G G2 F2 | z GAB c4- | c2 G2 G2 F2 | G3 A G4 | F8 :: z2 d2 ddA=B | %9
w: Al- ma fu-|ga- ce|al- ma ch'A-|mor non cu- ra,|do pen- ne'ar- ma-|* to'e col suo|stral' non pun-|ge.|Que- sto pal- lit- to'as-|
w: Ve- di di|mor- te'i|lan- gui- di|sem- bi- an- ti,|o- di le vo-|ci,'o- di so- spi-|ri tre- man-|ti.|So- spir nun- zi fu-|
w: Se- lie- ta|fu- sti'a'|mie- i du-|ri tor- men- ti,|ve- drai pui- lie-|* ta que- sti|lu- mi spen-|ti.|Que- st'in- fe- li- ci|
w: Al- ma sden-|gno- sa-|oc- chi cru-|de- li'e fe- ri,|i- ti- ne lie-|* ti'o glo- ri-|o- si'ar- cie-|ri.|De le spo- glie d'un|
w: Bel- lez- za'in-|giu- sta-|O cor trop-|po cru- de- le,|O pian- ti'O pre-|* ghi'o' spar- te'in-|van que- re-|le.|Ec- co ch'e' pur for-|
 G4 G4 | D2 D2 D2 EF | G3 A/B/ c4- | e2 D2 D4- | D2 D2 D4 | C8 | G2 G2 G2 A=B | c3 d/e/ f4- | %17
w: pet- to,|mi- ra non per pie-|ta _ _ _|_ m'a per-|* di- let-|to,|mi- ra non per pie-|ta _ _ _|
w: ne- sti,|dell' al- ma ch'al par-|tir _ _ _|_ par che|_ s'ap- pre-|sti,|dell' al- ma ch'al par-|rir _ _ _|
w: lu- mi,|di la- gri- me d'a-|mor _ _ _|_ fon- ta-|* n'e fu-|mi,|di la- gri- me d'a-|mor _ _ _|
w: co- re,|d'un cor che pur u'o-|no- * * *|* ra'e pur|_ si mo-|re,|d'un cor che pur u'o-|no- * * *|
w: ni- ta,|guer- ra si lun- ga'e|si _ _ _|_ pe- no-|* sa vi-|ta,|guer- ra si l'un- ga'e|si _ _ _|
 f2 G2 G4- | G2 G2 G4 | F8 |] %20
w: _ m'a per-|* di- let-|to.|
w: _ per- che|_ s'ap- pre-|sti.|
w: _ fon- ta-|* n'e fu-|mi.|
w: * ra'e pur|_ si mo-|re.|
w: _ pe- no-|* sa vi-|ta.|
V:2
 [Ac]4 [^FA]4 | [GB]4 [^FA]4 | [EA]8 | [Ad]2 e2 A4 | [G=Bd]4 [Ac]2 B2 | [Ec]2 [EA]4 [Fc]2 | %6
 [Ad]2 [Bd]2 [Gc]4 | [CFAc]8 :: d6 c2 | [D=B]8 | [D=B]2 [Ac]2 [GB]2 [Ad]2 | %11
 [Ge]2 [Bd]2 [Ec]2 [Bd]2 | [Ac]2 [DB]2 [EA]2 [FA]2 | d2 c4 =B2 | [EGc]2 [FA]2 [Ge]2 [Ac]2 | %15
 [Ge]2 [Fd]2 [Ec]2 [D=B]2 | [Ac]2 [Gc]2 [Fd]2 [FA]2 | [DF]2 [EG]2 [DA]2 [DB]2 | A2 B2 c2 G2 | %19
 [FAc]8 |] %20
V:3
"^-natural" F,4 D,4- | D,8 | C,8 | D,2 C,2 D,4 | G,,4 F,,2 G,,2 | A,,6 A,,2 | D,2 B,,2 C,4 | %7
 F,,8 :: B,4 ^F,4 | G,8 | G,2 F,2 E,2 D,2 | C,2 B,,2 A,,2 G,,2 | F,,2 G,,2 A,,2 D,2 | E,2 F,2 G,4 | %14
 C,2 D,2 E,2 F,2 | C,2 B,,2 A,,2 G,,2 | F,2 E,2 D,2 C,2 | B,,2 C,2 D,2 G,,2 | A,,2 B,,2 C,4 | %19
 F,,8 |] %20
V:4
 x8 | x8 | x8 | ^F2 G4 F2 | x8 | x8 | F6 E2 | x8 :: F4 A4 | x8 | x8 | x8 | x8 | G2 A2 D4 | x8 | %15
 x8 | x8 | x8 | F6 E2 | x8 |] %20

